X: 10183
Q: "Vivatiously."
M: 6/8
L: 1/8
K: G
E |\
EFE E2e | D2E G2A | BcB BAG |
cdc cBA | BcB BGF | ABA AGE |
c2A Bcd | EFE E2e | EFE E2e |\
ded dcB | cdc cBA | BcB BGF |\


